src/topics/icons/algolia.svg

<svg height="162" preserveAspectRatio="xMidYMid" viewBox="0 0 512 162" width="512" xmlns="http://www.w3.org/2000/svg"><path d="m265.937496 43.17597c-3.21971-3.2328307-8.441571-3.2302067-11.65997 0l-1.456349 1.4642204c-3.21971 3.2302067-3.217086 8.4756845 0 11.7085153l1.550814 1.5573741c3.303681-5.3241993 7.510034-10.0225625 12.397329-13.8917255zm50.362098-8.1030693c.011808-.1784354.051169-.3476868.051169-.5300583v-4.1394403c-.001312-4.5710968-3.690728-8.2775687-8.242144-8.2801928h-14.428345c-4.550104.0026241-8.240831 3.707784-8.240831 8.2801928v4.0672789c4.5934-1.292345 9.426903-1.9982148 14.425719-1.9982148 5.730928 0 11.251931.9197299 16.434432 2.6004345zm-61.770159 51.6006495c0 25.3588288 20.555502 45.9208908 45.920891 45.9208908 25.364076 0 45.920891-20.562062 45.920891-45.9208908 0-25.3588282-20.556815-45.9208912-45.920891-45.9208912-25.365389 0-45.920891 20.562063-45.920891 45.9208912zm45.920891-32.8006366c18.084959 0 32.800637 14.7143656 32.800637 32.8006366 0 18.0849588-14.715678 32.8006368-32.800637 32.8006368-18.086271 0-32.800637-14.715678-32.800637-32.8006368 0-18.086271 14.714366-32.8006366 32.800637-32.8006366zm7.664852 7.1702192-7.471984 26.4779859 24.065171-13.18848c-3.495236-6.4092444-9.459704-11.2545545-16.593187-13.2895059z" fill="#42afda"/><path d="m90.3196717 130.129456c-1.8935794-5.032485-3.6729929-9.978363-5.3421774-14.841568-1.6691843-4.863206-3.3974201-9.810395-5.1755213-14.841569h-52.4218378l-10.5176986 29.683137h-16.8624366c4.45115834-12.297112 8.62411929-23.670399 12.5215073-34.1251092 3.8960758-10.4533984 7.7042308-20.3766471 11.4375873-29.764497 3.7254831-9.3930988 7.4273456-18.3636526 11.1003386-26.915598s7.512642-17.0199067 11.5202592-25.403884h14.8573157c4.0076171 8.3839773 7.8472661 16.8519386 11.5202591 25.403884s7.372231 17.5224992 11.102963 26.915598c3.7267954 9.3878499 7.5375748 19.3110986 11.4349629 29.764497 3.8947638 10.4547102 8.0690369 21.8279972 12.5215069 34.1251092zm-15.1919399-43.095663c-3.5640761-9.7290354-7.0966581-19.1444425-10.6003706-28.2580317-3.5076492-9.1109647-7.1543972-17.8571235-10.9363071-26.2437252-3.897388 8.3866017-7.5966261 17.1327605-11.1016509 26.2437252-3.5050246 9.1135892-6.9864288 18.5289963-10.4350268 28.2580317zm73.6212672 44.771409c-9.571566-.224395-16.358532-2.289879-20.364837-6.204326-4.008929-3.911823-6.008802-10.004608-6.008802-18.278357v-104.64027618l15.522628-2.68224282v104.806932c0 2.574639.224395 4.69655.667936 6.373608.447477 1.675745 1.170529 3.019491 2.170464 4.024677 1.001248 1.003872 2.338433 1.759729 4.00893 2.263634 1.670497.502592 3.728108.922513 6.174145 1.258449zm73.958515-10.396971c-1.333248.898892-3.922321 2.040552-7.76197 3.4381s-8.320989 2.096978-13.440084 2.096978c-5.231948 0-10.15683-.839841-14.774644-2.514275-4.619126-1.679682-8.6543-4.277941-12.10421-7.798713-3.44991-3.523396-6.17677-7.908942-8.180579-13.163198-2.001184-5.2542563-3.005056-11.51501-3.005056-18.7809486 0-6.3722951.943508-12.2144404 2.8384-17.5251237 1.892267-5.3080588 4.645372-9.8943791 8.264562-13.7510874 3.615255-3.8567082 8.038855-6.8748875 13.270804-9.0545378 5.231947-2.1809627 11.13052-3.2714439 17.697029-3.2714439 7.234444 0 13.549.5340865 18.950229 1.594386 5.397292 1.0642362 9.932434 2.0405516 13.604115 2.9328829v77.8112865c0 13.415151-3.447286 23.138938-10.348419 29.176609-6.903756 6.036358-17.365029 9.053225-31.387752 9.053225-5.453719 0-10.600371-.443541-15.44258-1.338497-4.840898-.89758-9.04404-1.955255-12.602867-3.186148l2.838401-13.581806c3.113973 1.225644 6.927377 2.318749 11.434962 3.268819 4.507586.947447 9.208072 1.426418 14.105396 1.426418 9.238253 0 15.887434-1.845026 19.951477-5.536391 4.062733-3.687427 6.092786-9.558442 6.092786-17.607795zm-6.426097-65.9852733c-2.617943-.3897388-6.150525-.5878889-10.600372-.5878889-8.347233 0-14.775955 2.7426065-19.28354 8.2186336-4.507585 5.4773393-6.760722 12.7419656-6.760722 21.7978158 0 5.0324859.636442 9.336672 1.918512 12.9138706 1.280758 3.5798232 3.005057 6.5376392 5.175521 8.8878822 2.170465 2.344994 4.675554 4.081103 7.512643 5.196517 2.8384 1.119351 5.760785 1.677059 8.765842 1.677059 4.116534 0 7.901068-.586577 11.350979-1.75973 3.448598-1.175778 6.176769-2.543144 8.180578-4.107349v-50.9783607c-1.560267-.4474779-3.644124-.8660863-6.259441-1.2584496zm172.512567 76.3835573c-9.574189-.225708-16.361156-2.28988-20.367461-6.204328-4.006305-3.91051-6.010114-10.005919-6.010114-18.278356v-104.63896367l15.527877-2.68355508v104.80561975c0 2.574639.220458 4.69655.666624 6.373608.444853 1.677057 1.167904 3.019491 2.171776 4.024677.999936 1.006497 2.333184 1.762353 4.004993 2.264946 1.669185.503904 3.726796.921201 6.17677 1.257137zm27.210855-104.6389646c-2.780662 0-5.149276-.9238253-7.092722-2.7662269-1.950006-1.8463383-2.922385-4.3304311-2.922385-7.4627764 0-3.1297206.972379-5.6190625 2.922385-7.46146406 1.943446-1.84633841 4.31206-2.76753923 7.092722-2.76753923 2.781974 0 5.147964.92120082 7.09797 2.76753923 1.943446 1.84240156 2.921073 4.33174346 2.921073 7.46146406 0 3.1323453-.977627 5.6164381-2.921073 7.4627764-1.950006 1.8424016-4.315996 2.7662269-7.09797 2.7662269zm-7.677986 102.9619056h15.526564v-87.1991361h-15.526564zm70.282898-89.3787864c6.233197 0 11.49139.8135961 15.778516 2.4329149 4.281879 1.6206311 7.733101 3.9118229 10.348419 6.8722631 2.615318 2.9656892 4.481339 6.486461 5.594129 10.5675643 1.110166 4.0797911 1.669185 8.5781904 1.669185 13.4978227v54.5017574c-1.335872.223083-3.200582.530149-5.591506.9212-2.394859.391052-5.092849.753233-8.097905 1.089169-3.005057.334625-6.262066.641691-9.765779.921201-3.50765.276886-6.987741.419921-10.435027.419921-4.899948 0-9.404909-.502593-13.522756-1.50909-4.119158-1.006497-7.680609-2.599571-10.685666-4.777909-3.005057-2.179651-5.342178-5.057419-7.011363-8.637242-1.669183-3.577198-2.503776-7.881385-2.503776-12.912558 0-4.8054664.972379-8.9429966 2.922385-12.4086538 1.943446-3.4643449 4.587632-6.2581291 7.928626-8.3852894 3.339681-2.1219113 7.234444-3.6887401 11.686915-4.6952372 4.449846-1.0051849 9.124087-1.5090897 14.022723-1.5090897 1.556331 0 3.173026.0826719 4.84221.2506401 1.669184.1679683 3.257009.3949879 4.756913.6731852 1.502529.2795097 2.810843.5301498 3.926258.7532326 1.111477.2257073 1.889642.3936756 2.335808.5025924v-4.3593007c0-2.5720136-.278197-5.1138455-.834592-7.6307445-.55902-2.5155869-1.560268-4.7490396-3.006369-6.7056071s-3.422354-3.522084-5.927442-4.6978617c-2.503777-1.171841-5.760785-1.7597297-9.764466-1.7597297-5.123031 0-9.599123.3648059-13.441396 1.0904812-3.837024.7269876-6.704295 1.4828446-8.596562 2.2636345l-1.835841-12.9125584c2.002497-.8923313 5.34349-1.7597298 10.016419-2.5982587 4.674242-.8398412 9.738221-1.2584495 15.19194-1.2584495zm1.335872 78.1445984c3.672993 0 6.930003-.085296 9.767091-.253264 2.838401-.167968 5.203079-.472411 7.095346-.921201v-25.9917728c-1.115414-.557707-2.923698-1.0327422-5.424849-1.4251055-2.506401-.3910511-5.539015-.5892012-9.100467-.5892012-2.337121 0-4.814652.1692806-7.427345.5052171-2.616631.3346242-5.01149 1.0353667-7.179331 2.094354-2.171776 1.0642362-3.981372 2.5155868-5.426161 4.3619251-1.447414 1.8424016-2.170465 4.2753163-2.170465 7.2934963 0 5.590193 1.778101 9.474458 5.342178 11.654108 3.561451 2.182275 8.402349 3.271444 14.524003 3.271444z" fill="#091522"/></svg>

<?xml version="1.0" encoding="UTF-8" standalone="no"?>
<svg width="512px" height="162px" viewBox="0 0 512 162" version="1.1" xmlns="http://www.w3.org/2000/svg" xmlns:xlink="http://www.w3.org/1999/xlink" preserveAspectRatio="xMidYMid">
	<g>
		<path d="M265.937496,43.17597 C262.717786,39.9431393 257.495925,39.9457633 254.277526,43.17597 L252.821177,44.6401904 C249.601467,47.8703971 249.604091,53.1158749 252.821177,56.3487057 L254.371991,57.9060798 C257.675672,52.5818805 261.882025,47.8835173 266.76932,44.0143543 L265.937496,43.17597 L265.937496,43.17597 L265.937496,43.17597 Z M316.299594,35.0729007 C316.311402,34.8944653 316.350763,34.7252139 316.350763,34.5428424 L316.350763,30.4034021 C316.349451,25.8323053 312.660035,22.1258334 308.108619,22.1232093 L293.680274,22.1232093 C289.13017,22.1258334 285.439443,25.8309933 285.439443,30.4034021 L285.439443,34.470681 C290.032843,33.178336 294.866346,32.4724662 299.865162,32.4724662 C305.59609,32.4724662 311.117093,33.3921961 316.299594,35.0729007 L316.299594,35.0729007 L316.299594,35.0729007 Z M254.529435,86.6735502 C254.529435,112.032379 275.084937,132.594441 300.450326,132.594441 C325.814402,132.594441 346.371217,112.032379 346.371217,86.6735502 C346.371217,61.314722 325.814402,40.752659 300.450326,40.752659 C275.084937,40.752659 254.529435,61.314722 254.529435,86.6735502 L254.529435,86.6735502 L254.529435,86.6735502 Z M300.450326,53.8729136 C318.535285,53.8729136 333.250963,68.5872792 333.250963,86.6735502 C333.250963,104.758509 318.535285,119.474187 300.450326,119.474187 C282.364055,119.474187 267.649689,104.758509 267.649689,86.6735502 C267.649689,68.5872792 282.364055,53.8729136 300.450326,53.8729136 L300.450326,53.8729136 L300.450326,53.8729136 Z M308.115178,61.0431328 L300.643194,87.5211187 L324.708365,74.3326387 C321.213129,67.9233943 315.248661,63.0780842 308.115178,61.0431328 L308.115178,61.0431328 L308.115178,61.0431328 Z" fill="#42AFDA"></path>
		<path d="M90.3196717,130.129456 C88.4260923,125.096971 86.6466788,120.151093 84.9774943,115.287888 C83.30831,110.424682 81.5800742,105.477493 79.801973,100.446319 L27.3801352,100.446319 L16.8624366,130.129456 L-2.13162821e-14,130.129456 C4.45115834,117.832344 8.62411929,106.459057 12.5215073,96.0043468 C16.4175831,85.5509484 20.2257381,75.6276997 23.9590946,66.2398498 C27.6845777,56.846751 31.3864402,47.8761972 35.0594332,39.3242518 C38.7324262,30.7723064 42.5720752,22.3043451 46.5796924,13.9203678 L61.4370081,13.9203678 C65.4446252,22.3043451 69.2842742,30.7723064 72.9572672,39.3242518 C76.6302602,47.8761972 80.3294982,56.846751 84.0602302,66.2398498 C87.7870256,75.6276997 91.597805,85.5509484 95.4951931,96.0043468 C99.3899569,106.459057 103.56423,117.832344 108.0167,130.129456 L90.3196717,130.129456 L90.3196717,130.129456 L90.3196717,130.129456 L90.3196717,130.129456 Z M75.1277318,87.033793 C71.5636557,77.3047576 68.0310737,67.8893505 64.5273612,58.7757613 C61.019712,49.6647966 57.372964,40.9186378 53.5910541,32.5320361 C49.6936661,40.9186378 45.994428,49.6647966 42.4894032,58.7757613 C38.9843786,67.8893505 35.5029744,77.3047576 32.0543764,87.033793 L75.1277318,87.033793 L75.1277318,87.033793 L75.1277318,87.033793 Z M148.748999,131.805202 C139.177433,131.580807 132.390467,129.515323 128.384162,125.600876 C124.375233,121.689053 122.37536,115.596268 122.37536,107.322519 L122.37536,2.68224282 L137.897988,0 L137.897988,104.806932 C137.897988,107.381571 138.122383,109.503482 138.565924,111.18054 C139.013401,112.856285 139.736453,114.200031 140.736388,115.205217 C141.737636,116.209089 143.074821,116.964946 144.745318,117.468851 C146.415815,117.971443 148.473426,118.391364 150.919463,118.7273 L148.748999,131.805202 L148.748999,131.805202 L148.748999,131.805202 Z M222.707514,121.408231 C221.374266,122.307123 218.785193,123.448783 214.945544,124.846331 C211.105895,126.243879 206.624555,126.943309 201.50546,126.943309 C196.273512,126.943309 191.34863,126.103468 186.730816,124.429034 C182.11169,122.749352 178.076516,120.151093 174.626606,116.630321 C171.176696,113.106925 168.449836,108.721379 166.446027,103.467123 C164.444843,98.2128667 163.440971,91.952113 163.440971,84.6861744 C163.440971,78.3138793 164.384479,72.471734 166.279371,67.1610507 C168.171638,61.8529919 170.924743,57.2666716 174.543933,53.4099633 C178.159188,49.5532551 182.582788,46.5350758 187.814737,44.3554255 C193.046684,42.1744628 198.945257,41.0839816 205.511766,41.0839816 C212.74621,41.0839816 219.060766,41.6180681 224.461995,42.6783676 C229.859287,43.7426038 234.394429,44.7189192 238.06611,45.6112505 L238.06611,123.422537 C238.06611,136.837688 234.618824,146.561475 227.717691,152.599146 C220.813935,158.635504 210.352662,161.652371 196.329939,161.652371 C190.87622,161.652371 185.729568,161.20883 180.887359,160.313874 C176.046461,159.416294 171.843319,158.358619 168.284492,157.127726 L171.122893,143.54592 C174.236866,144.771564 178.05027,145.864669 182.557855,146.814739 C187.065441,147.762186 191.765927,148.241157 196.663251,148.241157 C205.901504,148.241157 212.550685,146.396131 216.614728,142.704766 C220.677461,139.017339 222.707514,133.146324 222.707514,125.096971 L222.707514,121.408231 L222.707514,121.408231 L222.707514,121.408231 Z M216.281417,55.4229577 C213.663474,55.0332189 210.130892,54.8350688 205.681045,54.8350688 C197.333812,54.8350688 190.90509,57.5776753 186.397505,63.0537024 C181.88992,68.5310417 179.636783,75.795668 179.636783,84.8515182 C179.636783,89.8840041 180.273225,94.1881902 181.555295,97.7653888 C182.836053,101.345212 184.560352,104.303028 186.730816,106.653271 C188.901281,108.998265 191.40637,110.734374 194.243459,111.849788 C197.081859,112.969139 200.004244,113.526847 203.009301,113.526847 C207.125835,113.526847 210.910369,112.94027 214.36028,111.767117 C217.808878,110.591339 220.537049,109.223973 222.540858,107.659768 L222.540858,56.6814073 C220.980591,56.2339294 218.896734,55.815321 216.281417,55.4229577 L216.281417,55.4229577 L216.281417,55.4229577 Z M388.793984,131.806515 C379.219795,131.580807 372.432828,129.516635 368.426523,125.602187 C364.420218,121.691677 362.416409,115.596268 362.416409,107.323831 L362.416409,2.68486733 L377.944286,0.00131225095 L377.944286,104.806932 C377.944286,107.381571 378.164744,109.503482 378.61091,111.18054 C379.055763,112.857597 379.778814,114.200031 380.782686,115.205217 C381.782622,116.211714 383.11587,116.96757 384.787679,117.470163 C386.456864,117.974067 388.514475,118.391364 390.964449,118.7273 L388.793984,131.806515 L388.793984,131.806515 L388.793984,131.806515 Z M416.004839,27.1675504 C413.224177,27.1675504 410.855563,26.2437251 408.912117,24.4013235 C406.962111,22.5549852 405.989732,20.0708924 405.989732,16.9385471 C405.989732,13.8088265 406.962111,11.3194846 408.912117,9.47708304 C410.855563,7.63074463 413.224177,6.70954381 416.004839,6.70954381 C418.786813,6.70954381 421.152803,7.63074463 423.102809,9.47708304 C425.046255,11.3194846 426.023882,13.8088265 426.023882,16.9385471 C426.023882,20.0708924 425.046255,22.5549852 423.102809,24.4013235 C421.152803,26.2437251 418.786813,27.1675504 416.004839,27.1675504 L416.004839,27.1675504 L416.004839,27.1675504 Z M408.326853,130.129456 L423.853417,130.129456 L423.853417,42.9303199 L408.326853,42.9303199 L408.326853,130.129456 L408.326853,130.129456 L408.326853,130.129456 Z M478.609751,40.7506696 C484.842948,40.7506696 490.101141,41.5642657 494.388267,43.1835845 C498.670146,44.8042156 502.121368,47.0954074 504.736686,50.0558476 C507.352004,53.0215368 509.218025,56.5423086 510.330815,60.6234119 C511.440981,64.703203 512,69.2016023 512,74.1212346 L512,128.622992 C510.664128,128.846075 508.799418,129.153141 506.408494,129.544192 C504.013635,129.935244 501.315645,130.297425 498.310589,130.633361 C495.305532,130.967986 492.048523,131.275052 488.54481,131.554562 C485.03716,131.831448 481.557069,131.974483 478.109783,131.974483 C473.209835,131.974483 468.704874,131.47189 464.587027,130.465393 C460.467869,129.458896 456.906418,127.865822 453.901361,125.687484 C450.896304,123.507833 448.559183,120.630065 446.889998,117.050242 C445.220815,113.473044 444.386222,109.168857 444.386222,104.137684 C444.386222,99.3322176 445.358601,95.1946874 447.308607,91.7290302 C449.252053,88.2646853 451.896239,85.4709011 455.237233,83.3437408 C458.576914,81.2218295 462.471677,79.6550007 466.924148,78.6485036 C471.373994,77.6433187 476.048235,77.1394139 480.946871,77.1394139 C482.503202,77.1394139 484.119897,77.2220858 485.789081,77.390054 C487.458265,77.5580223 489.04609,77.7850419 490.545994,78.0632392 C492.048523,78.3427489 493.356837,78.593389 494.472252,78.8164718 C495.583729,79.0421791 496.361894,79.2101474 496.80806,79.3190642 L496.80806,74.9597635 C496.80806,72.3877499 496.529863,69.845918 495.973468,67.329019 C495.414448,64.8134321 494.4132,62.5799794 492.967099,60.6234119 C491.520998,58.6668444 489.544745,57.1013279 487.039657,55.9255502 C484.53588,54.7537092 481.278872,54.1658205 477.275191,54.1658205 C472.15216,54.1658205 467.676068,54.5306264 463.833795,55.2563017 C459.996771,55.9832893 457.1295,56.7391463 455.237233,57.5199362 L453.401392,44.6073778 C455.403889,43.7150465 458.744882,42.847648 463.417811,42.0091191 C468.092053,41.1692779 473.156032,40.7506696 478.609751,40.7506696 L478.609751,40.7506696 L478.609751,40.7506696 Z M479.945623,118.895268 C483.618616,118.895268 486.875626,118.809972 489.712714,118.642004 C492.551115,118.474036 494.915793,118.169593 496.80806,117.720803 L496.80806,91.7290302 C495.692646,91.1713232 493.884362,90.696288 491.383211,90.3039247 C488.87681,89.9128736 485.844196,89.7147235 482.282744,89.7147235 C479.945623,89.7147235 477.468092,89.8840041 474.855399,90.2199406 C472.238768,90.5545648 469.843909,91.2553073 467.676068,92.3142946 C465.504292,93.3785308 463.694696,94.8298814 462.249907,96.6762197 C460.802493,98.5186213 460.079442,100.951536 460.079442,103.969716 C460.079442,109.559909 461.857543,113.444174 465.42162,115.623824 C468.983071,117.806099 473.823969,118.895268 479.945623,118.895268 L479.945623,118.895268 L479.945623,118.895268 Z" fill="#091522"></path>
	</g>
</svg>
